src/lib/packages/icons/src/assets/line/rotate-right-circle.svg

<svg width="24" height="24" viewBox="0 0 24 24" fill="none" xmlns="http://www.w3.org/2000/svg">
<path d="M16.75 8.44409V10.666C16.75 11.08 16.414 11.416 16 11.416H13.7771C13.3631 11.416 13.0271 11.08 13.0271 10.666C13.0271 10.252 13.3631 9.91602 13.7771 9.91602H14.4829C13.8789 9.19602 12.979 8.74902 12 8.74902C10.208 8.74902 8.75 10.207 8.75 11.999C8.75 13.791 10.208 15.249 12 15.249C13.242 15.249 14.3569 14.5571 14.9099 13.4431C15.0939 13.0731 15.541 12.92 15.916 13.105C16.287 13.29 16.4379 13.7391 16.2539 14.1101C15.4449 15.7371 13.816 16.749 12 16.749C9.381 16.749 7.25 14.618 7.25 11.999C7.25 9.38002 9.381 7.24902 12 7.24902C13.235 7.24902 14.388 7.73199 15.25 8.54199V8.44409C15.25 8.03009 15.586 7.69409 16 7.69409C16.414 7.69409 16.75 8.03009 16.75 8.44409ZM22.75 12C22.75 17.928 17.928 22.75 12 22.75C6.072 22.75 1.25 17.928 1.25 12C1.25 6.072 6.072 1.25 12 1.25C17.928 1.25 22.75 6.072 22.75 12ZM21.25 12C21.25 6.899 17.101 2.75 12 2.75C6.899 2.75 2.75 6.899 2.75 12C2.75 17.101 6.899 21.25 12 21.25C17.101 21.25 21.25 17.101 21.25 12Z" fill="currentColor"/>
</svg>

<svg xmlns="http://www.w3.org/2000/svg" width="24" height="24" fill="none"><path fill="currentColor" d="M16.75 8.444v2.222a.75.75 0 0 1-.75.75h-2.223a.75.75 0 0 1 0-1.5h.706A3.245 3.245 0 0 0 12 8.749a3.254 3.254 0 0 0-3.25 3.25 3.254 3.254 0 0 0 3.25 3.25 3.23 3.23 0 0 0 2.91-1.806.75.75 0 1 1 1.344.667A4.724 4.724 0 0 1 12 16.75 4.756 4.756 0 0 1 7.25 12 4.756 4.756 0 0 1 12 7.249c1.235 0 2.388.483 3.25 1.293v-.098a.75.75 0 0 1 1.5 0Zm6 3.556c0 5.928-4.822 10.75-10.75 10.75S1.25 17.928 1.25 12 6.072 1.25 12 1.25 22.75 6.072 22.75 12Zm-1.5 0c0-5.101-4.149-9.25-9.25-9.25S2.75 6.899 2.75 12s4.149 9.25 9.25 9.25 9.25-4.149 9.25-9.25Z"/></svg>
